app/img/contact/ic_company.svg

<svg width="25" height="21" viewBox="0 0 25 21" fill="none" xmlns="http://www.w3.org/2000/svg">
    <path d="M1.55074 10.2426H5.38394V18.9729H3.19354C2.89236 18.9729 2.64594 19.204 2.64594 19.4865C2.64594 19.7689 2.89236 20 3.19354 20H21.8119C22.1131 20 22.3595 19.7689 22.3595 19.4865C22.3595 19.204 22.1131 18.9729 21.8119 18.9729H19.6215V10.2426H23.4547C23.6847 10.2426 23.8928 10.1039 23.9695 9.89851C24.0461 9.69309 23.975 9.46199 23.7942 9.32847L12.8422 1.1117C12.6396 0.962768 12.3604 0.962768 12.1577 1.1117L1.20575 9.32847C1.02504 9.46713 0.953854 9.69309 1.03052 9.89851C1.11266 10.1039 1.32075 10.2426 1.55074 10.2426ZM9.76474 18.9729H6.47914V10.2426H9.76474V18.9729ZM14.1455 18.9729H10.8599V10.2426H14.1455V18.9729ZM18.5263 18.9729H15.2407V10.2426H18.5263V18.9729ZM12.5027 2.16961L21.8941 9.21549H3.1114L12.5027 2.16961Z"
          fill="#A2A2A4" fill-opacity="0.8"/>
    <path d="M12.9023 1.03171L12.9023 1.0317L12.9015 1.03112C12.6636 0.856293 12.3364 0.856293 12.0985 1.03112L12.0985 1.03112L12.0977 1.03171L1.14573 9.24847L1.14487 9.24913C0.932058 9.41243 0.843619 9.68372 0.93683 9.93347L0.936805 9.93348L0.937666 9.93563C1.03558 10.1805 1.28145 10.3426 1.55074 10.3426H5.28394V18.8729H3.19354C2.84327 18.8729 2.54594 19.1428 2.54594 19.4865C2.54594 19.8301 2.84327 20.1 3.19354 20.1H21.8119C22.1622 20.1 22.4595 19.8301 22.4595 19.4865C22.4595 19.1428 22.1622 18.8729 21.8119 18.8729H19.7215V10.3426H23.4547C23.7235 10.3426 23.9709 10.1807 24.0632 9.93347C24.1559 9.68487 24.069 9.40741 23.854 9.24831C23.8539 9.24822 23.8538 9.24813 23.8537 9.24804L12.9023 1.03171ZM9.66474 18.8729H6.57914V10.3426H9.66474V18.8729ZM10.9599 18.8729V10.3426H14.0455V18.8729H10.9599ZM18.4263 18.8729H15.3407V10.3426H18.4263V18.8729ZM12.5027 2.29462L21.5942 9.11549H3.41132L12.5027 2.29462Z"
          stroke="#A2A2A4" stroke-opacity="0.8" stroke-width="0.2"/>
</svg>

<svg width="25" height="21" fill="none" xmlns="http://www.w3.org/2000/svg"><path d="M1.55 10.243h3.834v8.73h-2.19c-.302 0-.548.231-.548.514 0 .282.246.513.548.513h18.618c.301 0 .547-.231.547-.514 0-.282-.246-.513-.547-.513h-2.19v-8.73h3.833a.55.55 0 0 0 .515-.344.494.494 0 0 0-.176-.57L12.842 1.111a.58.58 0 0 0-.684 0L1.206 9.328a.496.496 0 0 0-.175.57.56.56 0 0 0 .52.345Zm8.215 8.73H6.479v-8.73h3.286v8.73Zm4.38 0H10.86v-8.73h3.286v8.73Zm4.381 0h-3.285v-8.73h3.285v8.73ZM12.503 2.17l9.391 7.045H3.111l9.392-7.045Z" fill="#A2A2A4" fill-opacity=".8"/><path d="M12.902 1.032a.68.68 0 0 0-.803 0h-.001L1.146 9.248l-.001.001a.596.596 0 0 0-.208.684v.003a.66.66 0 0 0 .614.407h3.733v8.53h-2.09c-.35 0-.648.27-.648.613 0 .344.297.614.648.614h18.618c.35 0 .647-.27.647-.614 0-.343-.297-.613-.647-.613h-2.09v-8.53h3.733a.647.647 0 0 0 .608-.41.594.594 0 0 0-.209-.685L12.902 1.032Zm-3.237 17.84H6.579v-8.53h3.086v8.53Zm1.295 0v-8.53h3.085v8.53H10.96Zm7.466 0h-3.085v-8.53h3.085v8.53ZM12.503 2.296l9.091 6.82H3.411l9.092-6.82Z" stroke="#A2A2A4" stroke-opacity=".8" stroke-width=".2"/></svg>
